Suru++-Ubuntu/actions/symbolic/mail-forward-symbolic.svg

<svg width="16" height="16" version="1.1" xmlns="http://www.w3.org/2000/svg">
 <g transform="matrix(1,0,0,-1,0,18)" style="fill:#808080">
  <path d="m0 8.5c0 1.5 0.64 2.493 1.558 2.974 0.918 0.482 2.019 0.526 3.071 0.526h8.54v-1h-8.539c-1.012 0-1.975-0.08-2.606-0.411s-1.024-0.839-1.024-2.089v-4.5h-1z" font-weight="400" overflow="visible"/>
  <path d="m11 9 2e-3 5c0.76-0.348 1.535-0.737 2.323-1.166 0.781-0.431 1.534-0.876 2.26-1.334-0.726-0.449-1.479-0.889-2.26-1.32a43.084 43.084 0 0 0-2.324-1.18z" overflow="visible"/>
 </g>
</svg>

<?xml version="1.0" encoding="UTF-8" standalone="no"?>
<svg
   xmlns:dc="http://purl.org/dc/elements/1.1/"
   xmlns:cc="http://creativecommons.org/ns#"
   xmlns:rdf="http://www.w3.org/1999/02/22-rdf-syntax-ns#"
   xmlns:svg="http://www.w3.org/2000/svg"
   xmlns="http://www.w3.org/2000/svg"
   xmlns:sodipodi="http://sodipodi.sourceforge.net/DTD/sodipodi-0.dtd"
   xmlns:inkscape="http://www.inkscape.org/namespaces/inkscape"
   height="16"
   width="16"
   version="1.1"
   id="svg8"
   sodipodi:docname="mail-forward-symbolic.svg"
   inkscape:version="0.92.3 (2405546, 2018-03-11)">
  <metadata
     id="metadata14">
    <rdf:RDF>
      <cc:Work
         rdf:about="">
        <dc:format>image/svg+xml</dc:format>
        <dc:type
           rdf:resource="http://purl.org/dc/dcmitype/StillImage" />
      </cc:Work>
    </rdf:RDF>
  </metadata>
  <defs
     id="defs12" />
  <sodipodi:namedview
     pagecolor="#ffffff"
     bordercolor="#666666"
     borderopacity="1"
     objecttolerance="10"
     gridtolerance="10"
     guidetolerance="10"
     inkscape:pageopacity="0"
     inkscape:pageshadow="2"
     inkscape:window-width="770"
     inkscape:window-height="480"
     id="namedview10"
     showgrid="false"
     inkscape:zoom="14.75"
     inkscape:cx="0.30508475"
     inkscape:cy="8"
     inkscape:window-x="0"
     inkscape:window-y="34"
     inkscape:window-maximized="0"
     inkscape:current-layer="svg8" />
  <g
     id="g6"
     transform="matrix(1,0,0,-1,0,18)"
     style="color:#000000;fill:#808080">
    <path
       d="M 0,8.5 C 0,10 0.64,10.993 1.558,11.474 2.476,11.956 3.577,12 4.629,12 h 8.54 V 11 H 4.63 C 3.618,11 2.655,10.92 2.024,10.589 1.393,10.258 1,9.75 1,8.5 V 4 H 0 Z"
       style="font-weight:400;line-height:normal;font-family:sans-serif;font-variant-ligatures:none;font-variant-position:normal;font-variant-caps:normal;font-variant-numeric:normal;font-variant-alternates:normal;font-feature-settings:normal;text-indent:0;text-align:start;text-decoration:none;text-decoration-line:none;text-decoration-style:solid;text-decoration-color:#000000;text-transform:none;white-space:normal;shape-padding:0;overflow:visible;isolation:auto;mix-blend-mode:normal;marker:none"
       font-weight="400"
       overflow="visible"
       id="path2"
       inkscape:connector-curvature="0" />
    <path
       d="m 11,9 0.002,5 c 0.76,-0.348 1.535,-0.737 2.323,-1.166 0.781,-0.431 1.534,-0.876 2.26,-1.334 -0.726,-0.449 -1.479,-0.889 -2.26,-1.32 A 43.084,43.084 0 0 0 11.001,9 Z"
       style="overflow:visible;marker:none"
       overflow="visible"
       id="path4"
       inkscape:connector-curvature="0" />
  </g>
</svg>
